symbols/web/no_luggage/materialsymbolsrounded/no_luggage_wght200gradN25fill1_24px.svg

<svg xmlns="http://www.w3.org/2000/svg" height="24" width="24"><path d="m20.75 22.05-8.35-8.325V12.4l5.575 5.55v.475q0 .625-.45 1.075-.45.45-1.1.45 0 .3-.2.5t-.5.2q-.3 0-.487-.2-.188-.2-.188-.5H8.975q0 .325-.2.512-.2.188-.5.188t-.5-.2q-.2-.2-.2-.5-.625 0-1.075-.45-.45-.45-.45-1.075V8.5q0-.65.375-1.088Q6.8 6.975 7 7l.4.375V8.7l-5-5q-.125-.125-.137-.313Q2.25 3.2 2.4 3.05q.15-.15.325-.15.175 0 .35.15L21.4 21.4q.15.125.15.312 0 .188-.15.338-.15.15-.325.15-.175 0-.325-.15Zm-8.35-8.325-.8-.825v4.15q0 .175.113.287.112.113.287.113t.288-.113q.112-.112.112-.287Zm-3.25-3.25-.8-.825v7.4q0 .175.113.287.112.113.287.113t.288-.113q.112-.112.112-.287Zm1.475-3.45h3.025v-2.6h-3.025Zm7.35 8.225-2.325-2.3v-3q0-.175-.112-.3-.113-.125-.288-.125t-.287.125q-.113.125-.113.3v2.175l-5.175-5.1H9.8v-2.65q0-.325.225-.55.225-.225.55-.225H13.7q.325 0 .55.225.225.225.225.55v2.65h1.95q.65 0 1.1.462.45.463.45 1.088Zm-3.125.4v1.4q0 .175.113.287.112.113.287.113t.288-.113q.112-.112.112-.287v-1.4Z"/></svg>

<svg xmlns="http://www.w3.org/2000/svg" height="24" width="24"><path d="M21.4 22.05Q21.25 22.2 21.075 22.2Q20.9 22.2 20.75 22.05L17.75 19.05Q17.6 19.45 17.238 19.7Q16.875 19.95 16.425 19.95Q16.425 20.25 16.225 20.45Q16.025 20.65 15.725 20.65Q15.425 20.65 15.238 20.45Q15.05 20.25 15.05 19.95H8.975Q8.975 20.275 8.775 20.462Q8.575 20.65 8.275 20.65Q7.975 20.65 7.775 20.45Q7.575 20.25 7.575 19.95Q6.95 19.95 6.5 19.5Q6.05 19.05 6.05 18.425V8.5Q6.05 8.25 6.125 8.05Q6.2 7.85 6.35 7.675L2.4 3.7Q2.275 3.575 2.263 3.387Q2.25 3.2 2.4 3.05Q2.55 2.9 2.738 2.9Q2.925 2.9 3.075 3.05L21.4 21.4Q21.55 21.525 21.55 21.712Q21.55 21.9 21.4 22.05ZM8.75 17.45Q8.925 17.45 9.038 17.337Q9.15 17.225 9.15 17.05V10.475L8.35 9.65V17.05Q8.35 17.225 8.463 17.337Q8.575 17.45 8.75 17.45ZM12 17.45Q12.175 17.45 12.288 17.337Q12.4 17.225 12.4 17.05V13.725L11.6 12.9V17.05Q11.6 17.225 11.713 17.337Q11.825 17.45 12 17.45ZM15.575 16.875 14.85 16.15V17.05Q14.85 17.225 14.963 17.337Q15.075 17.45 15.25 17.45Q15.375 17.45 15.463 17.375Q15.55 17.3 15.575 17.175ZM17.975 15.25 15.65 12.95V9.95Q15.65 9.775 15.538 9.65Q15.425 9.525 15.25 9.525Q15.075 9.525 14.963 9.65Q14.85 9.775 14.85 9.95V12.125L9.4 6.675H9.55V4.375Q9.55 4.05 9.763 3.825Q9.975 3.6 10.325 3.6H13.7Q14.025 3.6 14.25 3.825Q14.475 4.05 14.475 4.375V7.025H16.425Q17.075 7.025 17.525 7.487Q17.975 7.95 17.975 8.575ZM13.65 7.025V4.425H10.35V7.025Z"/></svg>
